build/img/icons/instagram.svg

<svg width="48" height="48" viewBox="0 0 48 48" fill="none" xmlns="http://www.w3.org/2000/svg">
<path fill-rule="evenodd" clip-rule="evenodd" d="M0 24C0 10.7452 10.7452 0 24 0C37.2548 0 48 10.7452 48 24C48 37.2548 37.2548 48 24 48C10.7452 48 0 37.2548 0 24Z" fill="#F8F8F8"/>
<path fill-rule="evenodd" clip-rule="evenodd" d="M24.0012 11.2002C20.5248 11.2002 20.0886 11.2154 18.7232 11.2775C17.3605 11.3399 16.4304 11.5557 15.6165 11.8722C14.7747 12.1991 14.0605 12.6365 13.349 13.3482C12.637 14.0597 12.1997 14.7738 11.8717 15.6154C11.5544 16.4296 11.3384 17.36 11.277 18.7221C11.216 20.0875 11.2 20.524 11.2 24.0003C11.2 27.4766 11.2154 27.9116 11.2773 29.2769C11.34 30.6396 11.5557 31.5697 11.872 32.3836C12.1992 33.2255 12.6365 33.9396 13.3482 34.6511C14.0594 35.3631 14.7736 35.8015 15.6149 36.1285C16.4293 36.445 17.3597 36.6607 18.7222 36.7231C20.0875 36.7853 20.5235 36.8005 23.9996 36.8005C27.4761 36.8005 27.9111 36.7853 29.2764 36.7231C30.6391 36.6607 31.5703 36.445 32.3847 36.1285C33.2263 35.8015 33.9394 35.3631 34.6506 34.6511C35.3626 33.9396 35.7999 33.2255 36.1279 32.3839C36.4426 31.5697 36.6586 30.6393 36.7226 29.2772C36.784 27.9118 36.8 27.4766 36.8 24.0003C36.8 20.524 36.784 20.0878 36.7226 18.7224C36.6586 17.3597 36.4426 16.4296 36.1279 15.6157C35.7999 14.7738 35.3626 14.0597 34.6506 13.3482C33.9386 12.6362 33.2266 12.1989 32.3839 11.8722C31.5679 11.5557 30.6372 11.3399 29.2745 11.2775C27.9092 11.2154 27.4745 11.2002 23.9972 11.2002H24.0012ZM22.8528 13.5069C23.1936 13.5063 23.5739 13.5069 24.0011 13.5069C27.4187 13.5069 27.8238 13.5191 29.1734 13.5805C30.4214 13.6375 31.0988 13.8461 31.55 14.0213C32.1473 14.2533 32.5732 14.5306 33.0209 14.9786C33.4689 15.4266 33.7463 15.8533 33.9788 16.4506C34.154 16.9013 34.3628 17.5786 34.4196 18.8266C34.4809 20.176 34.4943 20.5813 34.4943 23.9974C34.4943 27.4134 34.4809 27.8187 34.4196 29.1681C34.3625 30.4161 34.154 31.0934 33.9788 31.5441C33.7468 32.1414 33.4689 32.5668 33.0209 33.0145C32.5729 33.4625 32.1476 33.7399 31.55 33.9719C31.0993 34.1479 30.4214 34.3559 29.1734 34.4129C27.8241 34.4743 27.4187 34.4876 24.0011 34.4876C20.5832 34.4876 20.1781 34.4743 18.8288 34.4129C17.5808 34.3553 16.9034 34.1468 16.452 33.9716C15.8546 33.7396 15.4279 33.4623 14.9799 33.0143C14.5319 32.5662 14.2546 32.1406 14.0221 31.543C13.8469 31.0924 13.6381 30.415 13.5813 29.167C13.5199 27.8177 13.5077 27.4123 13.5077 23.9942C13.5077 20.576 13.5199 20.1728 13.5813 18.8234C13.6383 17.5754 13.8469 16.8981 14.0221 16.4469C14.2541 15.8495 14.5319 15.4229 14.9799 14.9749C15.4279 14.5269 15.8546 14.2495 16.452 14.017C16.9032 13.841 17.5808 13.633 18.8288 13.5757C20.0096 13.5223 20.4672 13.5063 22.8528 13.5036V13.5069ZM30.8337 15.6322C29.9857 15.6322 29.2977 16.3194 29.2977 17.1677C29.2977 18.0157 29.9857 18.7037 30.8337 18.7037C31.6817 18.7037 32.3697 18.0157 32.3697 17.1677C32.3697 16.3197 31.6817 15.6322 30.8337 15.6322ZM24.0012 17.4269C20.371 17.4269 17.4278 20.3701 17.4278 24.0003C17.4278 27.6305 20.371 30.5724 24.0012 30.5724C27.6313 30.5724 30.5735 27.6305 30.5735 24.0003C30.5735 20.3701 27.6313 17.4269 24.0012 17.4269ZM24.0011 19.7336C26.3574 19.7336 28.2678 21.6437 28.2678 24.0003C28.2678 26.3566 26.3574 28.267 24.0011 28.267C21.6446 28.267 19.7344 26.3566 19.7344 24.0003C19.7344 21.6437 21.6446 19.7336 24.0011 19.7336Z" fill="#201D54"/>
</svg>

<svg width="48" height="48" fill="none" xmlns="http://www.w3.org/2000/svg"><path fill-rule="evenodd" clip-rule="evenodd" d="M0 24C0 10.745 10.745 0 24 0s24 10.745 24 24-10.745 24-24 24S0 37.255 0 24z" fill="#F8F8F8"/><path fill-rule="evenodd" clip-rule="evenodd" d="M24.001 11.2c-3.476 0-3.912.015-5.278.078-1.363.062-2.293.278-3.106.594a6.269 6.269 0 00-2.268 1.476 6.284 6.284 0 00-1.477 2.267c-.318.815-.534 1.745-.595 3.107-.061 1.365-.077 1.802-.077 5.278 0 3.477.015 3.912.077 5.277.063 1.363.279 2.293.595 3.107a6.272 6.272 0 001.476 2.267 6.27 6.27 0 002.267 1.477c.814.317 1.745.533 3.107.595 1.365.062 1.801.078 5.278.078 3.476 0 3.911-.016 5.276-.078 1.363-.062 2.294-.278 3.109-.594a6.264 6.264 0 002.266-1.478 6.284 6.284 0 001.477-2.267c.315-.814.53-1.745.595-3.107.061-1.365.077-1.8.077-5.277 0-3.476-.016-3.912-.077-5.278-.064-1.362-.28-2.292-.595-3.106a6.282 6.282 0 00-1.477-2.268 6.256 6.256 0 00-2.267-1.476c-.816-.316-1.747-.532-3.11-.595-1.365-.062-1.8-.077-5.277-.077h.004zm-1.148 2.307H24c3.418 0 3.823.012 5.172.074 1.248.056 1.926.265 2.377.44.597.232 1.023.51 1.47.958.449.448.726.874.959 1.472.175.45.384 1.128.44 2.376.062 1.349.075 1.754.075 5.17s-.013 3.822-.074 5.171c-.058 1.248-.266 1.925-.441 2.376a3.958 3.958 0 01-.958 1.47 3.958 3.958 0 01-1.471.958c-.45.176-1.129.384-2.377.44-1.349.062-1.754.076-5.172.076-3.418 0-3.823-.014-5.172-.075-1.248-.058-1.926-.266-2.377-.441a3.964 3.964 0 01-1.472-.958 3.968 3.968 0 01-.958-1.471c-.175-.45-.384-1.128-.44-2.376-.062-1.35-.074-1.755-.074-5.173s.012-3.821.073-5.17c.057-1.249.266-1.926.441-2.377.232-.597.51-1.024.958-1.472a3.972 3.972 0 011.472-.958c.451-.176 1.129-.384 2.377-.441 1.18-.054 1.638-.07 4.024-.072v.003zm7.98 2.125a1.536 1.536 0 100 3.072 1.536 1.536 0 000-3.072zm-6.832 1.795a6.574 6.574 0 100 13.147 6.574 6.574 0 000-13.147zm0 2.307a4.267 4.267 0 110 8.533 4.267 4.267 0 010-8.533z" fill="#201D54"/></svg>
